X: 23466
T: Levantine's Barrel
R: barndance
M: 4/4
K: Gmajor
|:BA|GBDG B2BA|GBed ^cdAG|FADF ADFA|GBed ^cd=cA|
GBDG B2BA|GBed ^cdAG|FADF ADFA|G2B2G2:|
|:d2|e2f2 g2fe|ed^cd B2AG|FADF ADFA|GBed ^cdBG|
e2f2 g2fe|ed^cd B2AG|FADF ADFA|G2B2G2:|

